!!!COM:	Obrecht, Jacob
!!!CDT:	1458-1505/07/
!!!OPR:	Missa De Sancto Martino
!!!ONM:	1
!!!OTL:	Kyrie
!!!AGN:	Mass; Kyrie
!!!SCT:	Obr1007a
!!!SCA:	Obr1007a
!!!voices:	4
**kern	**kern	**kern	**kern
*staff4	*staff3	*staff2	*staff1
*Ivox	*Ivox	*Ivox	*Ivox
*I"Bassus	*I"Tenor	*I"Altus	*I"Superius
*I'B	*I'T	*I'A	*I'S
*>[A,B,C]	*>[A,B,C]	*>[A,B,C]	*>[A,B,C]
*>A	*>A	*>A	*>A
*clefF4	*clefGv2	*clefGv2	*clefG2
*k[b-]	*k[b-]	*k[b-]	*k[b-]
*M3/1	*M3/1	*M3/1	*M3/1
*met(O)	*met(O)	*met(O)	*met(O)
!!section: Kyrie I
!!!OMD: Kyrie I
=1-	=1-	=1-	=1-
!	!LO:TX:X=-40:Z=10:t=In each section of Kyrie, T performs c.f. under different mensuration sign.	!	!
1.G	0.G	1.d	[0.g
2C/	.	2c\	.
1C	.	1e-	.
=2	=2	=2	=2
1.G	0.B-	1.d	0g]
2E\	.	2G/	.
1D	.	1d	1f
=3	=3	=3	=3
0C	0.c	1.G	2e/
.	.	.	2.g/
.	.	.	4f/
.	.	1.A	4e/
.	.	.	4d/
1AA	.	.	1e
=4	=4	=4	=4
2BB-/	0.d	2D/	1d
2GG/	.	2.G/	.
2.BB-/	.	.	2r
.	.	4F/	.
.	.	2B-\	2d/
4C/	.	.	.
2D\	.	2A/	2f/
2BB-/	.	2B-\	2g/
=5	=5	=5	=5
0F	0.A	0c	2.a/
.	.	.	4b-\
.	.	.	2cc\
.	.	.	1a
1D	.	1d	.
.	.	.	2f/
=6	=6	=6	=6
1C	0.c	1G	0e
1AA	.	1A	.
1C	.	1G	1e
=7	=7	=7	=7
0.GG	0.B-	1G	1d
.	.	1d	2r
.	.	.	2.g/
.	.	2r	.
.	.	.	4d/
.	.	2d\	[2g/
=8	=8	=8	=8
0C	0.G	2e\	2g/]
.	.	2.g\	2e/
.	.	.	2r
.	.	4f\	.
.	.	4e\	2.g/
.	.	4d\	.
1C	.	2c\	.
.	.	.	4f/
.	.	[2g\	4e/
.	.	.	4d/
=9	=9	=9	=9
2.C/	0.G	4g\]	2c/
.	.	4f\	.
.	.	2e\	1g
4GG/	.	.	.
2BB-/	.	2d\	.
2C/	.	1c	2e/
1GG	.	.	1d
.	.	2Bni\	.
=10	=10	=10	=10
1.C	0.G	0c	2c/
.	.	.	1e
2D\	.	.	2f/
1E	.	1B-	1g
=11	=11	=11	=11
0F	0.c	1A	0a
.	.	1f	.
1C	.	1e	1g
=12	=12	=12	=12
2.D\	0.A	2d\	2f/
.	.	2f\	2.a/
4AA/	.	.	.
2C/	.	2e\	.
.	.	.	4g/
2D\	.	1d	2f/
1AA	.	.	1e
.	.	2c#i\	.
=13	=13	=13	=13
1.D	0.A	2d\	1d
.	.	1f	.
.	.	.	1r
2C/	.	2e\	.
1D	.	1f	1a
=14	=14	=14	=14
0AA	0.c	1.e	1.a
.	.	2A/	4g/
.	.	.	4f/
1AA	.	1A	1e
=15	=15	=15	=15
2BB-/	0.B-	2F/	1d
2.GG/	.	2.G/	.
.	.	.	2r
4AA/	.	4F/	.
4BB-/	.	4D/	1d
4C/	.	4E/	.
2D\	.	2F/	.
2E\	.	2G/	2g/
=16	=16	=16	=16
2.F\	0.A	2D/	2f/
.	.	2d\	2.a/
8E\L	.	.	.
8D\J	.	.	.
1C	.	1e-i	.
.	.	.	4g/
.	.	.	1g
1D	.	1d	.
.	.	.	2f#i/
=17	=17	=17	=17
0.GGl	0.Gl	0.dl	0.gl
!!LO:LB:i:g=z
=18||	=18||	=18||	=18||
*>B	*>B	*>B	*>B
*clefF4	*clefGv2	*clefGv2	*clefG2
*k[b-]	*k[b-]	*k[b-]	*k[b-]
*M2/1	*M2/1	*M2/1	*M2/1
*met(C|)	*met(C|)	*met(C|)	*met(C|)
!!section: Christe
!!!OMD: Christe
0r	0G	1d	0r
.	.	2e\	.
.	.	[2d\	.
=19	=19	=19	=19
0r	0B-	2d\]	1d
.	.	2.G/	.
.	.	.	2e/
.	.	4A/	.
.	.	2B-\	2d/
=20	=20	=20	=20
0r	0c	2A/	2e/
.	.	2G/	1g
.	.	1A	.
.	.	.	2f/
=21	=21	=21	=21
0r	0d	2G/	2g/
.	.	2.B-\	1f
.	.	4c\	.
.	.	2d\	4e/
.	.	.	4d/
=22	=22	=22	=22
0r	0A	1.c	2e/
.	.	.	2f/
.	.	.	2e/
.	.	[2A/	[2a/
=23	=23	=23	=23
0r	0c	4A/]	2a/]
.	.	4B-\	.
.	.	2c\	2g/
.	.	1F	1a
=24	=24	=24	=24
0r	0B-	4G/	2.d/
.	.	4A/	.
.	.	4B-\	.
.	.	4c\	4e/
.	.	2d\	2f/
.	.	2G/	[2g/
=25	=25	=25	=25
0r	0G	2r	4g/]
.	.	.	4a/
.	.	2.d\	2.b-\
.	.	4c\	4a/
.	.	4B-\	4g/
.	.	4A/	4f/
=26	=26	=26	=26
0r	0G	2G/	2e/
.	.	2.B-\	2d/
.	.	.	2r
.	.	4G/	.
.	.	2B-\	2d/
=27	=27	=27	=27
0r	0G	2G/	2B-/
.	.	1B-	1d
.	.	4A/	4c/
.	.	4G/	4B-/
=28	=28	=28	=28
0r	0c	0F	1A
.	.	.	2r
.	.	.	[2a/
=29	=29	=29	=29
0r	0A	[0c	2a/]
.	.	.	4g/
.	.	.	4f/
.	.	.	2e/
.	.	.	[2f/
=30	=30	=30	=30
0r	0A	0c]	2f/]
.	.	.	1e
.	.	.	[2a/
=31	=31	=31	=31
0r	0c	0C	2a/]
.	.	.	1g
.	.	.	4f/
.	.	.	4e/
=32	=32	=32	=32
0r	0B-	0G	2d/
.	.	.	2e/
.	.	.	2d/
.	.	.	[2g/
=33	=33	=33	=33
0r	0A	0D	2g/]
.	.	.	4f#i/
.	.	.	4e/
.	.	.	1f#i
=34	=34	=34	=34
0r	0Gl	0dl	0gl
!!LO:LB:i:g=z
=35||	=35||	=35||	=35||
*>C	*>C	*>C	*>C
*clefF4	*clefGv2	*clefGv2	*clefG2
*k[b-]	*k[b-]	*k[b-]	*k[b-]
*M2/1	*M2/1	*M2/1	*M2/1
*met(C|)	*met(C|)	*met(C|)	*met(C|)
!!section: Kyrie II
!!!OMD: Kyrie II
2.GG/	[0G	1.d	0r
4AA/	.	.	.
2BB-/	.	.	.
[2C/	.	[2e\	.
=36	=36	=36	=36
2C/]	0G]	2e\]	0r
4BB-/	.	4d\	.
4AA/	.	4c\	.
2BB-/	.	2d\	.
2C/	.	2e\	.
=37	=37	=37	=37
0r	[0B-	2d\	2.d/
.	.	2.f\	.
.	.	.	4e/
.	.	.	2f/
.	.	4e\	.
.	.	4d\	[2g/
.	.	4c\	.
=38	=38	=38	=38
0r	0B-]	1d	2g/]
.	.	.	4f/
.	.	.	4e/
.	.	2r	2f/
.	.	2d\	2g/
=39	=39	=39	=39
2.C/	[0c	2.e-\	0r
4D\	.	4d\	.
2E\	.	4c\	.
.	.	4B-\	.
[2F\	.	[2A/	.
=40	=40	=40	=40
2F\]	0c]	2A/]	0r
4E\	.	4G/	.
4D\	.	4F/	.
2E\	.	2G/	.
2F\	.	2A/	.
=41	=41	=41	=41
0r	[0d	2.B-\	2.f/
.	.	4A/	4g/
.	.	2F/	2a/
.	.	[2G/	[2b-\
=42	=42	=42	=42
0r	0d]	2G/]	2b-\]
.	.	4F/	4a/
.	.	4E/	4g/
.	.	2F/	2a/
.	.	2G/	2b-\
=43	=43	=43	=43
1.F	[0A	2A/	0r
.	.	1D	.
[2D\	.	[2F/	.
=44	=44	=44	=44
2D\]	0A]	2F/]	0r
4C/	.	4E/	.
4BB-/	.	4D/	.
2AA/	.	2E/	.
2D\	.	[2F/	.
=45	=45	=45	=45
0r	[0c	4F/]	1.cc
.	.	4E/	.
.	.	2C/	.
.	.	2r	.
.	.	[2F/	[2a/
=46	=46	=46	=46
0r	0c]	2F/]	2a/]
.	.	2G/	4g/
.	.	.	4f/
.	.	2A/	2e/
.	.	2F/	2a/
=47	=47	=47	=47
1E-	[0B-	1G	0r
2D\	.	2F/	.
[2E-i\	.	[2G/	.
=48	=48	=48	=48
2E-\]	0B-]	2G/]	0r
4D\	.	4F/	.
4C/	.	4E/	.
1BB-	.	2F/	.
.	.	2D/	.
=49	=49	=49	=49
1C	[0G	1C	1e-
2BB-/	.	1r	2d/
[2C/	.	.	[2e-i/
=50	=50	=50	=50
2C/]	0G]	1C	2e-/]
4BB-/	.	.	4d/
4AA/	.	.	4c/
1GG	.	1D	1B-
=51	=51	=51	=51
0r	[0G	1C	1c
.	.	2r	2B-/
.	.	[2C/	[2c/
=52	=52	=52	=52
0r	0G]	4C/]	2c/]
.	.	4D/	.
.	.	4E/	4B-/
.	.	4F/	4A/
.	.	[1G	1G
=53	=53	=53	=53
1.G	[0G	2G/]	0r
.	.	1E	.
[2E\	.	4D/	.
.	.	4C/	.
=54	=54	=54	=54
2E\]	0G]	1G	0r
4D\	.	.	.
4C/	.	.	.
1G	.	1C	.
=55	=55	=55	=55
1C	[0c	0r	1.g
1r	.	.	.
.	.	.	[2e/
=56	=56	=56	=56
0r	0c]	0r	2e/]
.	.	.	4d/
.	.	.	4c/
.	.	.	1g
=57	=57	=57	=57
1.A	[0A	[0c	1c
.	.	.	1r
[2F\	.	.	.
=58	=58	=58	=58
2F\]	0A]	0c]	0r
4E\	.	.	.
4D\	.	.	.
1A	.	.	.
=59	=59	=59	=59
0D	[0A	0d	1.a
.	.	.	[2f/
=60	=60	=60	=60
0r	0A]	0c	2f/]
.	.	.	4e/
.	.	.	4d/
.	.	.	1a
=61	=61	=61	=61
0F	[0c	[0A	1.a
.	.	.	[2f/
=62	=62	=62	=62
1F	0c]	0A]	2f/]
.	.	.	4e/
.	.	.	4d/
1F	.	.	1a
=63	=63	=63	=63
2.G\	[0B-	1r	2.d/
4F\	.	.	4e/
2D\	.	2r	2f/
[2E-\	.	[2G/	[2g/
=64	=64	=64	=64
4E-\]	0B-]	2G/]	4g/]
4D\	.	.	4f/
2.BB-/	.	2.B-\	2.d/
4C/	.	4A/	4e/
4D\	.	2F/	4f/
4Eni\	.	.	4g/
=65	=65	=65	=65
4F\	[0A	2r	4a/
4G\	.	.	4b-\
2.A\	.	1F	2.cc\
4G\	.	.	4b-\
4F\	.	[2A/	4a/
4E\	.	.	4g/
=66	=66	=66	=66
2D\	0A]	4A/]	2f#i/
.	.	4B-\	.
2C/	.	2c\	2e/
1D	.	2A/	1f#i
.	.	[2d\	.
=67	=67	=67	=67
[0GGl	[0Gl	2d\]	[0gl
.	.	1e-	.
.	.	4d\	.
.	.	4c\	.
=68	=68	=68	=68
0GG_	0G_	1.B-	0g_
.	.	2c\	.
=69	=69	=69	=69
0GG]	0G]	0dl	0g]
==	==	==	==
*-	*-	*-	*-
!!!RDF**kern: l=long note in original notation
!!!RDF**kern: i=editorial accidental
!!!ENC:	Jesse Rodin 16/10/2009; Megan K. Eagen 20/10/2012
!!!END:	2013/08/19/
!!!EED:	Jesse Rodin
!!!EEV:	2014/01/03/
!!!ONB:	Translated from MusicXML and edited on 2014/01/03/ by Craig Sapp
!!muse2ps: T^@{OPR}^u^@{ONM}{. }@{OTL}^C^@{COM}^i2I150v85,85,85,150Q8c110
